svg/emoji_u1f552.svg

<svg xmlns="http://www.w3.org/2000/svg" viewBox="0 0 128 128" width="512px" height="512px"><path d="M64 121.74c-31.84 0-57.73-25.9-57.73-57.73C6.27 32.17 32.16 6.26 64 6.26c31.83 0 57.73 25.9 57.73 57.74 0 31.83-25.89 57.74-57.73 57.74z" fill="#fff"/><path d="M64 .1C28.77.1.1 28.77.1 64s28.67 63.89 63.9 63.89S127.89 99.23 127.89 64C127.9 28.77 99.23.1 64 .1zm0 121.64c-31.84 0-57.73-25.9-57.73-57.73C6.27 32.17 32.16 6.26 64 6.26c31.83 0 57.73 25.9 57.73 57.74 0 31.83-25.89 57.74-57.73 57.74z" fill="#40c0e7"/><path d="M68.61 55.42V11.33H59.4v44.08c-3.07 1.65-5.18 4.85-5.18 8.58 0 5.41 4.37 9.78 9.78 9.78 3.72 0 6.92-2.1 8.58-5.17h24.71v-9.2H72.58c-.9-1.7-2.28-3.07-3.97-3.98zm-6.06 11.97c-.89-.38-1.59-1.1-1.96-2-.18-.43-.28-.9-.28-1.39 0-.5.09-.96.28-1.39A3.676 3.676 0 0 1 64 60.32c2.04 0 3.69 1.65 3.69 3.68 0 1.52-.92 2.82-2.24 3.38-.02.01-.04.01-.06.02a3.606 3.606 0 0 1-2.79 0c-.01 0-.03 0-.05-.01z" fill="#2f2f2f"/><circle cx="113.93" cy="64" r="3.68" fill="#2f2f2f"/><path d="M109.08 42.23a3.691 3.691 0 0 0 1.35-5.03 3.673 3.673 0 0 0-5.03-1.35 3.68 3.68 0 0 0-1.35 5.03 3.682 3.682 0 0 0 5.03 1.35z" fill="#2f2f2f"/><ellipse transform="rotate(-60.007 88.966 20.758)" cx="88.97" cy="20.76" rx="3.68" ry="3.68" fill="#2f2f2f"/><ellipse transform="rotate(-29.991 39.032 20.757)" cx="39.03" cy="20.76" rx="3.68" ry="3.68" fill="#2f2f2f"/><path d="M22.6 35.84a3.682 3.682 0 0 0-5.03 1.35 3.677 3.677 0 0 0 1.35 5.03c1.76 1.02 4.01.42 5.03-1.35 1.02-1.76.4-4.01-1.35-5.03zm-8.54 24.48c-2.03 0-3.68 1.65-3.68 3.68 0 2.04 1.65 3.68 3.68 3.68 2.04 0 3.69-1.65 3.69-3.69 0-2.03-1.65-3.67-3.69-3.67zm4.85 25.46a3.685 3.685 0 0 0-1.34 5.03 3.691 3.691 0 0 0 5.03 1.35 3.694 3.694 0 0 0 1.35-5.04 3.688 3.688 0 0 0-5.04-1.34z" fill="#2f2f2f"/><ellipse transform="rotate(-60.02 39.033 107.246)" cx="39.03" cy="107.24" rx="3.69" ry="3.68" fill="#2f2f2f"/><path d="M63.99 110.25c-2.04 0-3.67 1.64-3.68 3.68.01 2.03 1.65 3.68 3.68 3.68a3.67 3.67 0 0 0 3.68-3.68c.01-2.02-1.64-3.68-3.68-3.68zm23.13-6.19a3.657 3.657 0 0 0-1.34 5.03 3.682 3.682 0 0 0 5.03 1.35 3.68 3.68 0 0 0 1.35-5.03 3.685 3.685 0 0 0-5.04-1.35zm21.96-18.28a3.68 3.68 0 0 0-5.03 1.35 3.671 3.671 0 0 0 1.35 5.03c1.76 1.01 4.01.41 5.03-1.35 1.02-1.76.42-4.02-1.35-5.03z" fill="#2f2f2f"/></svg>

<?xml version="1.0" encoding="utf-8"?>
<!-- Generator: Adobe Illustrator 19.2.1, SVG Export Plug-In . SVG Version: 6.00 Build 0)  -->
<svg version="1.1" id="レイヤー_1" xmlns="http://www.w3.org/2000/svg" xmlns:xlink="http://www.w3.org/1999/xlink" x="0px"
	 y="0px" viewBox="0 0 128 128" style="enable-background:new 0 0 128 128;" xml:space="preserve">
<g>
	<path style="fill:#FFFFFF;" d="M64,121.74c-31.84,0-57.73-25.9-57.73-57.73C6.27,32.17,32.16,6.26,64,6.26
		c31.83,0,57.73,25.9,57.73,57.74C121.73,95.83,95.84,121.74,64,121.74z"/>
	<g>
		<path style="fill:#40C0E7;" d="M64,0.1C28.77,0.1,0.1,28.77,0.1,64c0,35.23,28.67,63.89,63.9,63.89
			c35.23,0,63.89-28.66,63.89-63.89C127.9,28.77,99.23,0.1,64,0.1z M64,121.74c-31.84,0-57.73-25.9-57.73-57.73
			C6.27,32.17,32.16,6.26,64,6.26c31.83,0,57.73,25.9,57.73,57.74C121.73,95.83,95.84,121.74,64,121.74z"/>
		<path style="fill:#2F2F2F;" d="M68.61,55.42V11.33H59.4v44.08c-3.07,1.65-5.18,4.85-5.18,8.58c0,5.41,4.37,9.78,9.78,9.78
			c3.72,0,6.92-2.1,8.58-5.17l24.71,0V59.4H72.58C71.68,57.7,70.3,56.33,68.61,55.42z M62.55,67.39c-0.89-0.38-1.59-1.1-1.96-2
			c-0.18-0.43-0.28-0.9-0.28-1.39c0-0.5,0.09-0.96,0.28-1.39c0.55-1.35,1.87-2.29,3.41-2.29c2.04,0,3.69,1.65,3.69,3.68
			c0,1.52-0.92,2.82-2.24,3.38c-0.02,0.01-0.04,0.01-0.06,0.02c-0.43,0.18-0.9,0.28-1.39,0.28c-0.5,0-0.97-0.1-1.4-0.28
			C62.59,67.4,62.57,67.4,62.55,67.39z"/>
		<circle style="fill:#2F2F2F;" cx="113.93" cy="64" r="3.68"/>
		<path style="fill:#2F2F2F;" d="M109.08,42.23c1.76-1.02,2.36-3.27,1.35-5.03c-1.02-1.77-3.27-2.37-5.03-1.35
			c-1.76,1.01-2.37,3.27-1.35,5.03C105.07,42.65,107.32,43.24,109.08,42.23z"/>
		
			<ellipse transform="matrix(0.4999 -0.8661 0.8661 0.4999 26.5133 87.4348)" style="fill:#2F2F2F;" cx="88.97" cy="20.76" rx="3.68" ry="3.68"/>
		
			<ellipse transform="matrix(0.8661 -0.4999 0.4999 0.8661 -5.1501 22.2917)" style="fill:#2F2F2F;" cx="39.03" cy="20.76" rx="3.68" ry="3.68"/>
		<path style="fill:#2F2F2F;" d="M22.6,35.84c-1.76-1.02-4.01-0.41-5.03,1.35c-1.02,1.77-0.41,4.02,1.35,5.03
			c1.76,1.02,4.01,0.42,5.03-1.35C24.97,39.11,24.35,36.86,22.6,35.84z"/>
		<path style="fill:#2F2F2F;" d="M14.06,60.32c-2.03,0-3.68,1.65-3.68,3.68c0,2.04,1.65,3.68,3.68,3.68c2.04,0,3.69-1.65,3.69-3.69
			C17.75,61.96,16.1,60.32,14.06,60.32z"/>
		<path style="fill:#2F2F2F;" d="M18.91,85.78c-1.75,1.01-2.36,3.27-1.34,5.03c1.02,1.76,3.27,2.36,5.03,1.35
			c1.76-1.02,2.37-3.28,1.35-5.04C22.93,85.36,20.68,84.76,18.91,85.78z"/>
		
			<ellipse transform="matrix(0.4997 -0.8662 0.8662 0.4997 -73.3677 87.4658)" style="fill:#2F2F2F;" cx="39.03" cy="107.24" rx="3.69" ry="3.68"/>
		<path style="fill:#2F2F2F;" d="M63.99,110.25c-2.04,0-3.67,1.64-3.68,3.68c0.01,2.03,1.65,3.68,3.68,3.68
			c2.03,0.01,3.69-1.65,3.68-3.68C67.68,111.91,66.03,110.25,63.99,110.25z"/>
		<path style="fill:#2F2F2F;" d="M87.12,104.06c-1.77,1.01-2.37,3.26-1.34,5.03c1.02,1.76,3.27,2.37,5.03,1.35
			c1.76-1.01,2.37-3.27,1.35-5.03C91.14,103.64,88.88,103.04,87.12,104.06z"/>
		<path style="fill:#2F2F2F;" d="M109.08,85.78c-1.76-1.02-4.02-0.41-5.03,1.35c-1.02,1.77-0.42,4.01,1.35,5.03
			c1.76,1.01,4.01,0.41,5.03-1.35C111.45,89.05,110.85,86.79,109.08,85.78z"/>
	</g>
</g>
</svg>
